X:86
T:The Guns of the Magnificent Seven
T:Fintan McManus's
M:4/4
L:1/8
R:reel
C:Fintan McManus
D:Altan: Island Angel
K:Ador
EAAG ABcA|EAFA GEDG|EAAG ABcd|egdB BAAG:|
|:ABcd eA~A2|gedc BG~G2|ABcd eaaf|1 gedB BAAG:|2 gedB BA~A2||
|:[M:3/4]egdB A2|[M:4/4]egdB ABcd|\
ecdB a2ag|1 (3efg dB BA~A2:|2 (3efg dB BAAG||
